icon-themes/sifr_svg/cmd/sc_sourcecharstyle.svg

<svg viewBox="0 0 16 16" xmlns="http://www.w3.org/2000/svg"><path d="m12 2v2h-2v2h2v8h2v-12zm-8 4v2h3v-2zm3 2v4h2v-4zm0 4h-3v2h3zm-3 0v-4h-2v4z" fill="#555753"/></svg>

<svg xmlns="http://www.w3.org/2000/svg" viewBox="0 0 16 16">
  <path
     style="fill:#555753"
     d="M 12 2 L 12 4 L 10 4 L 10 6 L 12 6 L 12 14 L 14 14 L 14 2 L 12 2 z M 4 6 L 4 8 L 7 8 L 7 6 L 4 6 z M 7 8 L 7 12 L 9 12 L 9 8 L 7 8 z M 7 12 L 4 12 L 4 14 L 7 14 L 7 12 z M 4 12 L 4 8 L 2 8 L 2 12 L 4 12 z "
     />
</svg>
